assets/icons/qvision/connected_tv.svg

<svg xmlns="http://www.w3.org/2000/svg" height="24" viewBox="0 0 24 24" width="24"><path d="M0 0h24v24H0z" fill="none"/><path d="M21 3H3c-1.1 0-2 .9-2 2v12c0 1.1.9 2 2 2h5v2h8v-2h5c1.1 0 1.99-.9 1.99-2L23 5c0-1.1-.9-2-2-2zm0 14H3V5h18v12zM4 14v2h2c0-1.11-.89-2-2-2zm0-3v1.43c1.97 0 3.57 1.6 3.57 3.57H9c0-2.76-2.24-5-5-5zm0-3v1.45c3.61 0 6.55 2.93 6.55 6.55H12c0-4.42-3.59-8-8-8z"/></svg>

<svg width="24" height="24" viewBox="0 0 24 24" fill="none" xmlns="http://www.w3.org/2000/svg">
<g clip-path="url(#clip0_147_2937)">
<path d="M21 3H3C1.9 3 1 3.9 1 5V17C1 18.1 1.9 19 3 19H8V21H16V19H21C22.1 19 22.99 18.1 22.99 17L23 5C23 3.9 22.1 3 21 3ZM21 17H3V5H21V17ZM4 14V16H6C6 14.89 5.11 14 4 14ZM4 11V12.43C5.97 12.43 7.57 14.03 7.57 16H9C9 13.24 6.76 11 4 11ZM4 8V9.45C7.61 9.45 10.55 12.38 10.55 16H12C12 11.58 8.41 8 4 8Z" fill="#323232"/>
</g>
<defs>
<clipPath id="clip0_147_2937">
<rect width="24" height="24" fill="white"/>
</clipPath>
</defs>
</svg>
